X:1
T:Non ha'l ciel
T:Non ha'l ciel
T:Enrico Radesca di Foggia
T:Source : Canzonette, madrigale & arie---Libro I---Milano---Heredes S.Tini & F.Lomazzi---1606. Editor : André Vierendeels (14/04/14).
C:Enrico Radesca di Foggia
%%score [ 1 2 ] 3
L:1/8
Q:1/4=86
M:4/4
K:C
V:1 treble nm="Soprano" snm="S"
V:2 bass nm="Bass" snm="B"
V:3 bass nm="MusicXML Part"
V:1
 d2 c2 B4- | B2 A2 A2 A2 | G4 G4 :: c2 d2 e4- | e2 c2 B2 B2 |[M:2/4] A2 A2 || z2 Bc | %7
w: Non ha'l ciel-|_ co- tan- ti|lu- mi,|tan- te stil-|* le- mar' e|fiu- mi,|non A-|
w: Pe- nar lon-|* go'e gio- ir|cor- to,|mo- rir vi|_ vo'e vi- ver|mor- to,|spem' in-|
w: Nev' al Sol,-|_ e neb- bi'al|ven- to|e d'a- mor|_ gio- ia'e con-|ten- to,|dell' af-|
w: Do ben' io|_ ch'il mo- rir|so- lo|puo dar fi-|* ne'al mio gran|duo- lo,|ne di|
[M:4/4] d2 B2 c2 A2 | B2 G2 z2 Bc | d2 B2 c2 A2 | B2 G2 A2 F2 | G2 B2 A2 A2 | G4 G4 | B2 c2 d4- | %14
w: pril gigl' e vi-|o- le, non A-|pril gigl' e vi-|o- le, tan- ti|rag- gi non ha'l|So- le,|quan- te dogl'|
w: cer- ta'e van de-|si- re, mer- ce|po- ca'e gran lan-|gui- re, fal- si|ri- si'e ve- ri|pian- ti,|e' la vi-|
w: fan- ni'e del- le|pe- ne, ahi ch'il|fin giar- mai non|vie- ne, gel di|mor- t'es- tin- gue'ar-|do- re,|ch'in un' al-|
w: voi gia' mi do-|gl'i- o, del mio|sta- to'a- cer- bo'e|ri- o, Sol' A-|mor ti- ran- no'ac-|cu- so,|oc- chi bel|
 d2 A2 c2 B2 | A2 G2 A4 | A4 d2 c2 | B4 e4- | e2 d2 c2 B2 | d2 A2 A4 | G8 :| %21
w: _ e pe- ne'o-|gn'ho- * *|ra, cor gen-|til, cor|_ gen- til che|s'in- na- mo-|ra.|
w: * ta de gl'A-|man- * *|ti, e' la|vi- ta|_ de _ _|_ gl'A- man-|ti.|
w: * m'ac- cen- de'a-|mo- * *|re, ch'in un'|al- m'ac-|* cen- * *|* d'a- mo-|re.|
w: _ li'e voi ne|scu- * *|so, oc- chi|be- li'e|_ voi _ _|_ ne scu-|so.|
V:2
 G,2 A,2 G,4 | C,4 D,2 D,2 | G,,4 G,,4 :: A,2 F,2 E,4 | A,,4 E,2 E,2 |[M:2/4] A,2 A,2 || z2 G,A, | %7
w: Non ha'l ciel|co- tan- ti|lu- mi,|tan- te stil-|le mar' e|fiu- mi,|non A-|
w: Pe- nar lon-|go'e gio- ir|cor- to,|mo- rir vi-|vo'e vi- ver|mor- to,|spem' in-|
w: Nev' al Sol|e neb- bia'al|ven- to|e d'a- mor|gio- ia'e con=|ten- to,|dell' af-|
w: Do ben io|ch'il mo- rir|so- lo|puo dar fi-|ne'al mio gran|duo- lo,|ne di|
[M:4/4] G,2 G,2 A,2 ^F,2 | G,2 G,2 z2 G,A, | G,2 G,2 A,2 ^F,2 |"^-natural" G,2 E,2 F,2 D,2 | %11
w: pril gigl' e vi-|o- le, non A-|ril gigl' e vi-|o- le, tan- ti|
w: cer- ta'e van de-|si- re, mer- ce|po- ca'e gran lan-|gui- re, fal- si|
w: fan- ni'e del- le|pe- ne, ahi ch'il|fin giar- mai non|vie- ne, gel di|
w: voi gia' mi do-|gl'i- o, del mio|sta- to'a- cer- bo'e|ri- o, Sol' A-|
 E,2 C,2 D,2 D,2 | G,,4 G,,4 | G,6 D,2 | F,6 G,2 | A,2 _B,2 A,4 | D,8 | G,2 F,2 E,2 D,2 | C,6 E,2 | %19
w: rag- gi non ha'l|So- le,|quan- te|dogl' e|pe- ne'o- gn'ho-|ra,|cor gen- til che|s'in- na-|
w: ri- si'e ve- ni|pian- ti,|e' la|vi- ta|de gl'A- man-|ti,|e' la vi- ta|de gl'A-|
w: mor- t'es- tin- gue'ar-|do- re,|ch'in un'|al- m'ac-|cen- de'a- mo-|re,|ch'in un' al- m'ac-|cen- d'a-|
w: mor ti- ran- no'ac-|cu- so,|oc- cho|bel- li'e|voi ne scu-|so,|oc- chi bel- li'e|voi ne|
 D,8 | G,,8 :| %21
w: mo-|ra.|
w: man-|ti.|
w: mo-|re.|
w: scu-|so.|
V:3
 G,2 A,2 G,4 | C,4 D,4 | G,,8 :: A,2 F,2 E,4 | A,,4 E,4 |[M:2/4] A,,4 || G,3 A, | %7
[M:4/4] G,4 A,2 ^F,2 | G,4 G,4 | G,4 A,2 ^F,2 |"^-natural" G,2 E,2 F,2 D,2 | E,2 C,2 D,4 | G,,8 | %13
 G,2 C,2 D,4 | F,6 G,2 | A,2 _B,2 A,4 | D,8 | G,2 F,2 E,2 D,2 | C,6 E,2 | D,8 | G,,8 :| %21

